X: 627
P: Longways for as many as will
M: 6/4
L: 1/4
K: D
d2e (fd)f | g3 f2(f//g//a/) | (fg)f e2d | e3 A2A | d2e (fd)f | g3 f2(f//g//a/) |
(fg)f e2d | d3- d2 |][| a | (ab)a g2f | g3 f2(f//g//a) | (fg)f e2d | e3 A2a | (ab)a g2f |
g3 f2(f//g//a/) | (fg)f e2d | d3- d2 :]

